src/components/Icon/svg-icon/main/sentiment-very-negative.svg

<svg xmlns="http://www.w3.org/2000/svg" width="24" height="24" viewBox="0 0 24 24">
  <path fill="#DE4543" d="M12,14 C9.67,14 7.68,15.45 6.88,17.5 L8.55,17.5 C9.24,16.31 10.52,15.5 12,15.5 C13.48,15.5 14.75,16.31 15.45,17.5 L17.12,17.5 C16.32,15.45 14.33,14 12,14 L12,14 Z M11.99,2 C6.47,2 2,6.48 2,12 C2,17.52 6.47,22 11.99,22 C17.52,22 22,17.52 22,12 C22,6.48 17.52,2 11.99,2 Z M12,20 C7.58,20 4,16.42 4,12 C4,7.58 7.58,4 12,4 C16.42,4 20,7.58 20,12 C20,16.42 16.42,20 12,20 Z M15.5,11 C16.3284271,11 17,10.3284271 17,9.5 C17,8.67157288 16.3284271,8 15.5,8 C14.6715729,8 14,8.67157288 14,9.5 C14,10.3284271 14.6715729,11 15.5,11 Z M8.5,11 C9.32842712,11 10,10.3284271 10,9.5 C10,8.67157288 9.32842712,8 8.5,8 C7.67157288,8 7,8.67157288 7,9.5 C7,10.3284271 7.67157288,11 8.5,11 Z"/>
</svg>

<svg xmlns="http://www.w3.org/2000/svg" width="24" height="24"><path fill="#DE4543" d="M12 14c-2.33 0-4.32 1.45-5.12 3.5h1.67c.69-1.19 1.97-2 3.45-2 1.48 0 2.75.81 3.45 2h1.67c-.8-2.05-2.79-3.5-5.12-3.5zm-.01-12C6.47 2 2 6.48 2 12s4.47 10 9.99 10C17.52 22 22 17.52 22 12S17.52 2 11.99 2zM12 20c-4.42 0-8-3.58-8-8s3.58-8 8-8 8 3.58 8 8-3.58 8-8 8zm3.5-9a1.5 1.5 0 100-3 1.5 1.5 0 000 3zm-7 0a1.5 1.5 0 100-3 1.5 1.5 0 000 3z"/></svg>
